X:48
T:Jig. RDO.48
M:6/8
L:1/8
Q:3/8=120
S:Robert D. Owen MS,Indiana,1826.
R:.Jig
O:Indiana,USA
A:New Harmony
Z:vmp.Chris Partington
K:A
abae2a|f2ae2c’|a2a (ab)a|c’3e’3|!
abae2a|f2ae2c’|d’e’f’ e’c’a|b3a3:|!
|:c2e efe|efe edc|d2f fgf|fgf fed|\
c2e efe|!
efe edc|1def ecA|B3A3:|2efe efg|agf edc|]

